icons/Design/focus-3-fill.svg

<svg viewBox="0 0 24 24" xmlns="http://www.w3.org/2000/svg"><path d="M13 1L13.001 4.06201C16.6192 4.51365 19.4869 7.38163 19.9381 11L23 11V13L19.938 13.001C19.4864 16.6189 16.6189 19.4864 13.001 19.938L13 23H11L11 19.9381C7.38163 19.4869 4.51365 16.6192 4.06201 13.001L1 13V11L4.06189 11C4.51312 7.38129 7.38129 4.51312 11 4.06189L11 1H13ZM12 10C10.8954 10 10 10.8954 10 12C10 13.1046 10.8954 14 12 14C13.1046 14 14 13.1046 14 12C14 10.8954 13.1046 10 12 10Z"/></svg>

<svg xmlns="http://www.w3.org/2000/svg" viewBox="0 0 24 24">
    <g>
        <path fill="none" d="M0 0h24v24H0z"/>
        <path d="M13 1l.001 3.062A8.004 8.004 0 0 1 19.938 11H23v2l-3.062.001a8.004 8.004 0 0 1-6.937 6.937L13 23h-2v-3.062a8.004 8.004 0 0 1-6.938-6.937L1 13v-2h3.062A8.004 8.004 0 0 1 11 4.062V1h2zm-1 9a2 2 0 1 0 0 4 2 2 0 0 0 0-4z"/>
    </g>
</svg>
